img/icons/quadcopter.svg

<svg width="132" height="69" viewBox="0 0 132 69" fill="none" xmlns="http://www.w3.org/2000/svg"><g clip-path="url(#clip0)"><path d="M12.0523.257888C6.50738.745188 1.83838 1.8507.575275 2.9303-.147425 3.5465-.147425 3.5465.342875 4.0865.987375 4.8062 4.05628 5.73148 7.59048 6.32278 11.5885 6.99078 20.1003 7.0162 21.3136 6.3741 22.5255 5.7061 22.9376 4.96045 22.9376 3.39265 22.9376 1.77395 22.3185.976664 20.7198.540164 19.274.154263 14.9415-119209e-10 12.0523.257888z" fill="#363636"/><path d="M25.7744.488258C25.645.771454 25.5161 2.59617 25.5161 4.60007 25.5161 8.66107 25.6714 8.37838 23.3242 8.53318L22.2934 8.61028 22.164 11.1547 22.0351 13.6986 20.8486 13.9818C18.2695 14.6498 16.8496 16.577 17.0571 19.2762 17.185 21.2034 18.0879 22.617 19.6357 23.3631 20.7446 23.8763 21.1054 23.9012 30.8818 23.9012 36.4267 23.9012 41.019 23.9798 41.0703 24.0819 41.1211 24.2103 39.9609 33.4891 38.4907 44.7206 37.0459 55.9511 35.8076 65.7177 35.7822 66.3866 35.7309 68.0038 36.6084 69.0077 38.1299 69.0077 39.3672 69.0077 40.1416 68.3661 40.4512 67.1063 40.5806 66.5926 41.9468 56.7733 43.4693 45.285 44.9913 33.8221 46.3321 24.4163 46.4097 24.4163 46.5127 24.4163 47.4927 25.8294 48.6021 27.552 51.542 32.178 51.001 31.8689 56.2374 31.8689H60.5958V34.6711 37.4987L55.463 37.5758C50.7428 37.6529 50.253 37.7028 49.5817 38.191 48.0089 39.3482 47.9567 39.606 47.9567 49.1676 47.9567 58.7018 47.9831 58.9596 49.4792 60.2174L50.3303 60.9127H66.0129 81.6955L82.5461 60.2174C84.0422 58.9596 84.0666 58.7018 84.0666 49.1676 84.0666 39.6061 84.0158 39.3483 82.4436 38.191 81.7727 37.7027 81.2825 37.6529 76.5618 37.5758L71.43 37.4987V34.6711 31.8689H75.7894C81.0238 31.8689 80.4828 32.178 83.4232 27.552 84.5336 25.8293 85.513 24.4163 85.6166 24.4163 85.6928 24.4163 87.0355 33.8221 88.5561 45.285 90.0786 56.7733 91.4457 66.5926 91.5747 67.1063 91.8843 68.3661 92.6567 69.0077 93.896 69.0077 95.4175 69.0077 96.2954 68.0038 96.2427 66.3866 96.2173 65.7177 94.979 55.9511 93.5337 44.7206 92.0649 33.4892 90.9028 24.2103 90.9556 24.0819 91.0064 23.9798 95.5972 23.9012 101.145 23.9012 110.92 23.9012 111.281 23.8763 112.389 23.3631 113.937 22.617 114.839 21.2034 114.968 19.2762 115.175 16.577 113.757 14.6497 111.177 13.9818L109.99 13.6986 109.863 11.1547 109.734 8.61028 108.702 8.53318C106.355 8.37838 106.508 8.66107 106.508 4.60007 106.508 2.59617 106.38.771454 106.251.488258 106.045.128357 105.708-228882e-10 104.884-228882e-10 104.265-228882e-10 103.646.128365 103.464.308571 103.258.514168 103.155 1.7739 103.155 4.2407 103.155 6.708 103.052 7.96778 102.845 8.17278 102.665 8.35248 101.944 8.48088 101.196 8.48088 99.5698 8.48088 99.5444 8.53308 99.5444 11.5913V13.8784H66.0127 32.4805V11.5913C32.4805 8.53318 32.4556 8.48088 30.8306 8.48088 30.0821 8.48088 29.3604 8.35248 29.1802 8.17278 28.9727 7.96768 28.8701 6.708 28.8701 4.2407 28.8701 1.7739 28.7671.514069 28.5605.308571 28.3798.128365 27.7602-228882e-10 27.1416-228882e-10 26.3169-228882e-10 25.9814.128456 25.7744.488258zM68.6172 40.6084C71.5059 41.5068 74.0088 44.001 74.7832 46.7764 75.2217 48.3194 75.0928 50.9922 74.499 52.5596 73.8027 54.4346 71.8144 56.5694 69.9336 57.4951 68.6436 58.1367 68.1797 58.2139 66.0127 58.2139 63.8462 58.2139 63.3818 58.1368 62.0923 57.4951 60.208 56.5693 58.2232 54.4346 57.5264 52.5596 56.9336 50.9922 56.8037 48.3194 57.2427 46.7764 57.9907 44.0528 60.4922 41.5069 63.3042 40.6084 65.3164 39.9659 66.6045 39.9659 68.6172 40.6084z" fill="#363636"/><path d="M63.7941 44.4375C61.7575 45.3633 60.2873 48.0869 60.7253 50.168 61.4992 53.8448 65.5485 55.7207 68.7209 53.8701 70.7063 52.7119 71.7121 50.3232 71.1721 48.0869 70.6037 45.6963 68.4377 43.9492 66.0129 43.9492 65.3674 43.9493 64.3874 44.1807 63.7941 44.4375z" fill="#363636"/><path d="M36.0918.154258C32.1714.822258 31.5786 1.28516 31.5786 3.59806 31.5786 5.42276 32.0425 6.01407 33.8467 6.55367 35.3965 7.01607 41.0191 7.06784 44.3467 6.68204 51.2075 5.85974 55.6685 4.13764 54.0454 2.93004 52.7803 2.03014 49.1431 1.05355 44.9912.539951 42.5156.231951 36.9951-419617e-10 36.0918.154258z" fill="#363636"/><path d="M89.4844.257861C83.1651.848161 77.6201 2.33895 77.6201 3.44385 77.6201 5.16605 85.4609 6.91355 93.25 6.93945 99.0537 6.93945 100.446 6.29734 100.446 3.59814 100.446 1.77394 99.8272.97656 98.0733.51416 96.4238.10256 92.3984-386238e-10 89.4844.257861z" fill="#363636"/><path d="M112.777.283252C110.996.514252 109.758 1.05377 109.346 1.77397 108.959 2.54447 109.036 4.67775 109.5 5.34575 110.428 6.65675 111.152 6.81104 116.569 6.81104 120.23 6.81104 122.37 6.68215 124.435 6.32275 127.969 5.73145 131.038 4.80617 131.683 4.08647 132.173 3.54647 132.173 3.54647 131.45 2.93027 130.11 1.79937 125.492.745161 119.534.257861 116.053-.0253386 115.046-.0253482 112.777.283252z" fill="#363636"/></g><defs><clipPath id="clip0"><path d="M0 0h132v69H0z" fill="#fff"/></clipPath></defs></svg>

<svg width="132" height="69" fill="none" xmlns="http://www.w3.org/2000/svg"><path d="M12.05.26C6.51.75 1.84 1.86.58 2.93c-.73.62-.73.62-.24 1.16C1 4.8 4.06 5.73 7.6 6.32c4 .67 12.51.7 13.72.05 1.22-.66 1.63-1.41 1.63-2.98 0-1.62-.62-2.41-2.22-2.85C19.27.15 14.94 0 12.05.26zM25.77.49c-.13.28-.25 2.1-.25 4.11 0 4.06.15 3.78-2.2 3.93l-1.03.08-.13 2.54-.12 2.55-1.2.28c-2.57.67-3.99 2.6-3.78 5.3.13 1.92 1.03 3.34 2.58 4.08 1.1.52 1.47.54 11.24.54 5.55 0 10.14.08 10.19.18.05.13-1.1 9.4-2.58 20.64-1.44 11.23-2.68 21-2.7 21.67C35.72 68 36.6 69 38.12 69c1.24 0 2.01-.64 2.32-1.9.13-.52 1.5-10.34 3.02-21.83a727.78 727.78 0 012.94-20.86c.1 0 1.08 1.4 2.2 3.13 2.93 4.63 2.4 4.32 7.63 4.32h4.36v5.63l-5.14.08c-4.72.07-5.2.12-5.88.61-1.57 1.16-1.62 1.42-1.62 10.98 0 9.53.02 9.79 1.52 11.05l.85.7H81.7l.85-.7c1.5-1.26 1.52-1.52 1.52-11.05 0-9.56-.05-9.82-1.63-10.98-.67-.49-1.16-.54-5.88-.61l-5.13-.08v-5.63h4.36c5.23 0 4.7.3 7.63-4.32a25.53 25.53 0 012.2-3.13c.07 0 1.42 9.4 2.94 20.86 1.52 11.5 2.89 21.31 3.01 21.83.31 1.26 1.09 1.9 2.33 1.9 1.52 0 2.4-1 2.34-2.62-.02-.67-1.26-10.44-2.7-21.67a903 903 0 01-2.58-20.64c.05-.1 4.64-.18 10.19-.18 9.77 0 10.13-.02 11.24-.54 1.55-.74 2.45-2.16 2.58-4.08a4.75 4.75 0 00-3.8-5.3L110 13.7l-.13-2.55-.13-2.54-1.03-.08c-2.34-.15-2.2.13-2.2-3.93 0-2-.12-3.83-.25-4.11-.2-.36-.54-.49-1.37-.49-.61 0-1.23.13-1.42.3-.2.21-.3 1.47-.3 3.94 0 2.47-.1 3.73-.31 3.93-.18.18-.9.31-1.65.31-1.63 0-1.66.05-1.66 3.11v2.29H32.48v-2.29c0-3.06-.02-3.1-1.65-3.1-.75 0-1.47-.14-1.65-.32-.2-.2-.31-1.46-.31-3.93s-.1-3.73-.3-3.93C28.37.13 27.75 0 27.13 0c-.82 0-1.16.13-1.37.49zM68.62 40.6c2.89.9 5.39 3.4 6.16 6.17.44 1.54.31 4.21-.28 5.78a10.23 10.23 0 01-4.57 4.94c-1.29.64-1.75.71-3.92.71-2.16 0-2.63-.07-3.92-.71a10.22 10.22 0 01-4.56-4.94c-.6-1.57-.73-4.24-.29-5.78a9.58 9.58 0 016.06-6.17 7.56 7.56 0 015.32 0z" fill="#363636"/><path d="M63.8 44.44c-2.04.92-3.51 3.65-3.07 5.73a5.43 5.43 0 008 3.7 5.3 5.3 0 002.44-5.78 5.38 5.38 0 00-5.16-4.14c-.64 0-1.62.23-2.22.49zM36.1.15c-3.93.67-4.52 1.14-4.52 3.45 0 1.82.46 2.41 2.27 2.95 1.55.47 7.17.52 10.5.13 6.86-.82 11.32-2.54 9.7-3.75-1.27-.9-4.9-1.88-9.06-2.39-2.47-.3-8-.54-8.9-.39zM89.48.26c-6.31.59-11.86 2.08-11.86 3.18 0 1.73 7.84 3.47 15.63 3.5 5.8 0 7.2-.64 7.2-3.34 0-1.83-.62-2.62-2.38-3.09C96.42.11 92.4 0 89.48.26zM112.78.28c-1.78.23-3.02.77-3.43 1.5-.4.76-.31 2.9.15 3.57.93 1.3 1.65 1.46 7.07 1.46 3.66 0 5.8-.13 7.87-.49 3.53-.59 6.6-1.51 7.24-2.23.5-.54.5-.54-.23-1.16-1.34-1.13-5.96-2.18-11.92-2.67-3.48-.29-4.48-.29-6.75.02z" fill="#363636"/><!-- Code injected by live-server -->
</svg>
